!!!OTL: AUF EINER HOHEN MAUER
!!!ARE: Europa, Mitteleuropa, Deutschland, Berlin
!!!SCT: K2224
!!!YEM: Copyright 1995, estate of Helmut Schaffrath.
**kern
*ICvox
*Ivox
*M2/4
*k[f#c#]
*D:
{8a
=1
8a
8a
8b
8b
=2
4a
8f#}
{8f#
=3
8g
8g
8e
8g
=4
4f#
8r}
{8a
=5
8a
8a
8b
8b
=6
4a
8f#}
{8f#
=7
8g
8g
8e
8g
=8
4d
8r}
{8f#
=9
8a
8a
8b
8b
=10
4a
8r}
{8a
=11
8a
8a
8b
8b
=12
4a
8r}
{16f#
16f#
=13
8g
8g
8e
16e
16e
=14
8f#
8f#
8d}
{16d
16d
=15
8e
8e
8c#
8c#
=16
4d
8r}
==
!!!AGN: Kinder - Lied, Reigen, Tanz - Spiel, Brautwerbung
!!!ONB: ESAC (Essen Associative Code) Database: KINDER
!!!AMT: simple duple
!!!AIN: vox
!!!EED: Helmut Schaffrath
!!!EEV: 1.0
*-
